X:1681
T:Jämtland tune
A:Jämtland
M:4/4
N:A wonderfully deviant version of Soldiers Joy
O:Sweden
R:Schottische
Z:Richard Robinson <URL:http://www.qualmograph.org.uk/contact.html>
K:D
FAAA FAAA | F2d2 dcd2 | FAAA FAAA | F2E2 E4 |
FAAA FAAA | F2d2 dcd2 | cdef g2ec | e2d2 d4::
f2d2 f2a2 | egec e2g2 | fafd egec |[M:6/4] d2AG F2D2-D2g2 | [M:4/4]
f2d2 f2a2 | egec e2g2 | fafd egec | d2 {de}dc d4 :|

